X: 14048
T: LAURA M\'E'S REEL
C: Bob McQuillen 30 June'08
B: Bob's Note Book 14 #48
%R: reel
%D:2008
Z: 2020 John Chambers <jc:trillian.mit.edu>
M: C
L: 1/8
K: D
DF \
| A2BA FDFA | d2df edBA | fafd efdB | Adfd e2dB |
| AFAd BAFA | defd g2ag | fafd BAdB | AFEF D2 :|
|: de \
| f2af edBA | d2Ad BAFA | BdAd fdBd | AdAF E2DE |
| F2AF EDFE | DFAd f2dB | Adfd BAdf | afef d2 :|
%%begintext align
%% The Seattle area is noted for having a Contra dance
%% almost every night of the week, and Laura M\'e
%% Smith is one of the best known callers there.
%% Get 'em to play this tune for you, Laura M\'e --
%% I sure hope you like it! Love, Bob
%%endtext

%%sep 1 1 500

%%sep 1 1 500

